svg/OSM-icons/craft #ff8000 °ffffff !label=encrafts,deHerstellung, Produktion/16086;craft=tiler;[addr];[contact];!label=entiler,deFliesen- leger.svg

<svg xmlns="http://www.w3.org/2000/svg" viewBox="0 0 580 580" enable-background="new 0 0 580 580"><path fill="#111" stroke="#eee" stroke-width="3.408" d="m66.28 1.768c-41.34 0-64.57 21.371-64.57 65.04v450.12c0 40.844 20.895 62.23 62.19 62.23h452.02c41.31 0 62.23-20.315 62.23-62.23v-450.12c0-42.602-20.923-65.04-63.52-65.04-.003 0-448.5-.143-448.35 0z"/><g fill="#fff"><path d="m276.46 261.49c0 7.726-6.263 13.988-13.989 13.988h-191.89c-7.726 0-13.989-6.263-13.989-13.988v-177c0-7.726 6.263-13.989 13.989-13.989h191.89c7.726 0 13.989 6.263 13.989 13.989v177"/><path d="m523.4 261.49c0 7.726-6.263 13.988-13.988 13.988h-191.89c-7.726 0-13.988-6.263-13.988-13.988v-177c0-7.726 6.263-13.989 13.988-13.989h191.89c7.726 0 13.988 6.263 13.988 13.989v177"/><path d="m276.46 495.51c0 7.726-6.263 13.988-13.989 13.988h-191.89c-7.726 0-13.989-6.263-13.989-13.988v-177c0-7.726 6.263-13.989 13.989-13.989h191.89c7.726 0 13.989 6.264 13.989 13.989v177"/><path d="m523.4 495.51c0 7.726-6.263 13.988-13.988 13.988h-191.89c-7.726 0-13.988-6.263-13.988-13.988v-177c0-7.726 6.263-13.989 13.988-13.989h191.89c7.726 0 13.988 6.264 13.988 13.989v177"/></g></svg>

<?xml version="1.0" encoding="utf-8"?>
<!-- Generator: Adobe Illustrator 15.0.0, SVG Export Plug-In . SVG Version: 6.00 Build 0)  -->
<!DOCTYPE svg PUBLIC "-//W3C//DTD SVG 1.1//EN" "http://www.w3.org/Graphics/SVG/1.1/DTD/svg11.dtd">
<svg version="1.1" xmlns="http://www.w3.org/2000/svg" xmlns:xlink="http://www.w3.org/1999/xlink" x="0px" y="0px" width="580px"
	 height="580px" viewBox="0 0 580 580" enable-background="new 0 0 580 580" xml:space="preserve">
<g id="Layer_2_1_">
	<g id="Layer_2">
		<g id="g1327">
			<path id="path1329" fill="#111111" stroke="#EEEEEE" stroke-width="3.408" d="M66.275,1.768
				c-41.335,0-64.571,21.371-64.571,65.036v450.123c0,40.844,20.895,62.229,62.192,62.229h452.024
				c41.307,0,62.229-20.315,62.229-62.229V66.804c0-42.602-20.923-65.036-63.521-65.036C514.625,1.768,66.133,1.625,66.275,1.768z"
				/>
		</g>
	</g>
</g>
<g id="Layer_1">
	<g id="Grass_4">
	</g>
	<g>
		<path fill="#FFFFFF" d="M276.462,261.486c0,7.726-6.263,13.988-13.989,13.988H70.585c-7.726,0-13.989-6.263-13.989-13.988v-177
			c0-7.726,6.263-13.989,13.989-13.989h191.888c7.726,0,13.989,6.263,13.989,13.989V261.486z"/>
		<path fill="#FFFFFF" d="M523.404,261.486c0,7.726-6.263,13.988-13.988,13.988H317.527c-7.726,0-13.988-6.263-13.988-13.988v-177
			c0-7.726,6.263-13.989,13.988-13.989h191.889c7.726,0,13.988,6.263,13.988,13.989V261.486z"/>
		<path fill="#FFFFFF" d="M276.462,495.514c0,7.726-6.263,13.988-13.989,13.988H70.585c-7.726,0-13.989-6.263-13.989-13.988v-177
			c0-7.726,6.263-13.989,13.989-13.989h191.888c7.726,0,13.989,6.264,13.989,13.989V495.514z"/>
		<path fill="#FFFFFF" d="M523.404,495.514c0,7.726-6.263,13.988-13.988,13.988H317.527c-7.726,0-13.988-6.263-13.988-13.988v-177
			c0-7.726,6.263-13.989,13.988-13.989h191.889c7.726,0,13.988,6.264,13.988,13.989V495.514z"/>
	</g>
</g>
</svg>
